src/home/img/ssl-encryption.svg

<svg height="72" viewBox="0 0 77 72" width="77" xmlns="http://www.w3.org/2000/svg" xmlns:xlink="http://www.w3.org/1999/xlink"><linearGradient id="a" x1="0%" x2="0%" y1="0%" y2="105.733%"><stop offset="0" stop-color="#3c3f4a"/><stop offset="1" stop-color="#2a2f45"/></linearGradient><filter id="b" height="108%" width="108%" x="-4%" y="-4%"><feGaussianBlur in="SourceGraphic" stdDeviation=".65"/></filter><linearGradient id="c" x1="0%" x2="0%" y1="0%" y2="104.976%"><stop offset="0" stop-color="#2a2f45"/><stop offset="1" stop-color="#1a1f36"/></linearGradient><linearGradient id="d"><stop offset="0" stop-color="#fff"/><stop offset="1" stop-color="#aec3eb"/></linearGradient><radialGradient id="e" cx="57.589%" cy="6.679%" gradientTransform="matrix(0 .86885 -1 0 .643 -.434)" r="115.094%" xlink:href="#d"/><filter id="f" height="109.8%" width="111.2%" x="-5.6%" y="-4.9%"><feGaussianBlur in="SourceGraphic" stdDeviation=".65"/></filter><radialGradient id="g" cx="57.589%" cy="6.679%" gradientTransform="matrix(0 .86885 -1 0 .643 -.434)" r="195.416%" xlink:href="#d"/><mask id="h" fill="#fff"><path d="m.5 13.84c0-7.367 5.973-13.34 13.34-13.34h48.32c7.367 0 13.34 5.973 13.34 13.34v48.32c0 7.367-5.973 13.34-13.34 13.34h-48.32c-7.367 0-13.34-5.973-13.34-13.34z" fill="#fff" fill-rule="evenodd"/></mask><g fill="none" fill-rule="evenodd" transform="translate(1 -1)"><path d="m.5 13.84c0-7.367 5.973-13.34 13.34-13.34h48.32c7.367 0 13.34 5.973 13.34 13.34v48.32c0 7.367-5.973 13.34-13.34 13.34h-48.32c-7.367 0-13.34-5.973-13.34-13.34z" mask="url(#h)"/><path d="m.5 13.84c0-7.367 5.973-13.34 13.34-13.34h48.32c7.367 0 13.34 5.973 13.34 13.34v48.32c0 7.367-5.973 13.34-13.34 13.34h-48.32c-7.367 0-13.34-5.973-13.34-13.34z"/><path d="m.5 13.84c0-7.367 5.973-13.34 13.34-13.34h48.32c7.367 0 13.34 5.973 13.34 13.34v48.32c0 7.367-5.973 13.34-13.34 13.34h-48.32c-7.367 0-13.34-5.973-13.34-13.34z"/><g fill-rule="nonzero" transform="translate(0 2)"><g stroke="#fff" stroke-opacity=".01" stroke-width="1.68" transform="translate(5)"><path d="m47.4994959 21.4516129c-2.0467837-12.60282258-6.8743699-21.4516129-12.492438-21.4516129-5.6180682 0-10.4456544 8.84879032-12.492438 21.4516129zm-26.0435572 13.5483871c0 3.1330645.169389 6.1391129.4658197 9.0322581h26.1564832c.2964307-2.8931452.4658197-5.8991936.4658197-9.0322581s-.169389-6.1391129-.4658197-9.0322581h-26.1564832c-.2964307 2.8931452-.4658197 5.8991936-.4658197 9.0322581zm45.8338375-13.5483871c-4.0371043-9.5826613-12.210123-16.99193548-22.3028837-19.98387096 3.4442428 4.77016129 5.8156887 11.95362906 7.0578746 19.98387096zm-42.2766687-19.98387096c-10.0786449 2.99193548-18.26577941 10.40120966-22.28876792 19.98387096h15.24500912c1.2280701-8.0302419 3.599516-15.21370967 7.0437588-19.98387096zm43.7870538 24.49999996h-16.1907642c.2964307 2.9637097.4658197 5.9979839.4658197 9.0322581s-.169389 6.0685484-.4658197 9.0322581h16.1766485c.7763662-2.8931452 1.2139544-5.8991936 1.2139544-9.0322581s-.4375882-6.1391129-1.1998387-9.0322581zm-51.8612623 9.0322581c0-3.0342742.169389-6.0685484.4658197-9.0322581h-16.19076427c-.76225046 2.8931452-1.21395443 5.8991936-1.21395443 9.0322581s.45170397 6.1391129 1.21395443 9.0322581h16.17664847c-.2823149-2.9637097-.4517039-5.9979839-.4517039-9.0322581zm5.5757209 13.5483871c2.0467836 12.6028226 6.8743698 21.4516129 12.492438 21.4516129 5.6180681 0 10.4456543-8.8487903 12.492438-21.4516129zm22.4863884 19.983871c10.0786449-2.9919355 18.2657794-10.4012097 22.3028836-19.983871h-15.2450091c-1.2421859 8.0302419-3.6136317 15.2137097-7.0578745 19.983871zm-42.27666872-19.983871c4.03710426 9.5826613 12.21012302 16.9919355 22.30288362 19.983871-3.4442428-4.7701613-5.8156886-11.9536291-7.0578745-19.983871z" fill="url(#a)" filter="url(#b)"/><path d="m47.4994959 21.4516129c-2.0467837-12.60282258-6.8743699-21.4516129-12.492438-21.4516129-5.6180682 0-10.4456544 8.84879032-12.492438 21.4516129zm-26.0435572 13.5483871c0 3.1330645.169389 6.1391129.4658197 9.0322581h26.1564832c.2964307-2.8931452.4658197-5.8991936.4658197-9.0322581s-.169389-6.1391129-.4658197-9.0322581h-26.1564832c-.2964307 2.8931452-.4658197 5.8991936-.4658197 9.0322581zm45.8338375-13.5483871c-4.0371043-9.5826613-12.210123-16.99193548-22.3028837-19.98387096 3.4442428 4.77016129 5.8156887 11.95362906 7.0578746 19.98387096zm-42.2766687-19.98387096c-10.0786449 2.99193548-18.26577941 10.40120966-22.28876792 19.98387096h15.24500912c1.2280701-8.0302419 3.599516-15.21370967 7.0437588-19.98387096zm43.7870538 24.49999996h-16.1907642c.2964307 2.9637097.4658197 5.9979839.4658197 9.0322581s-.169389 6.0685484-.4658197 9.0322581h16.1766485c.7763662-2.8931452 1.2139544-5.8991936 1.2139544-9.0322581s-.4375882-6.1391129-1.1998387-9.0322581zm-51.8612623 9.0322581c0-3.0342742.169389-6.0685484.4658197-9.0322581h-16.19076427c-.76225046 2.8931452-1.21395443 5.8991936-1.21395443 9.0322581s.45170397 6.1391129 1.21395443 9.0322581h16.17664847c-.2823149-2.9637097-.4517039-5.9979839-.4517039-9.0322581zm5.5757209 13.5483871c2.0467836 12.6028226 6.8743698 21.4516129 12.492438 21.4516129 5.6180681 0 10.4456543-8.8487903 12.492438-21.4516129zm22.4863884 19.983871c10.0786449-2.9919355 18.2657794-10.4012097 22.3028836-19.983871h-15.2450091c-1.2421859 8.0302419-3.6136317 15.2137097-7.0578745 19.983871zm-42.27666872-19.983871c4.03710426 9.5826613 12.21012302 16.9919355 22.30288362 19.983871-3.4442428-4.7701613-5.8156886-11.9536291-7.0578745-19.983871z" fill="url(#c)"/></g><path d="m31.030445 22.5h-1.8618267v-5.625c0-6.546875-5.2906909-11.875-11.7915691-11.875s-11.79156911 5.328125-11.79156911 11.875v5.625h-1.86182669c-2.05576698 0-3.7236534 1.6796875-3.7236534 3.75v15c0 2.0703125 1.66788642 3.75 3.7236534 3.75h27.3067916c2.0557669 0 3.7236534-1.6796875 3.7236534-3.75v-15c0-2.0703125-1.6678865-3.75-3.7236534-3.75zm-10.0468384 13.3196721c0 1.8114754-1.4672132 3.2786886-3.2786886 3.2786886s-3.2786885-1.4672132-3.2786885-3.2786886v-3.9344262c0-1.8114754 1.4672131-3.2786885 3.2786885-3.2786885s3.2786886 1.4672131 3.2786886 3.2786885zm1.9449847-13.1147541h-11.147541v-5.5737705c0-3.0733151 2.5004554-5.5737705 5.5737705-5.5737705s5.5737705 2.5004554 5.5737705 5.5737705z" fill="url(#e)" filter="url(#f)"/><path d="m31.030445 22.5h-1.8618267v-5.625c0-6.546875-5.2906909-11.875-11.7915691-11.875s-11.79156911 5.328125-11.79156911 11.875v5.625h-1.86182669c-2.05576698 0-3.7236534 1.6796875-3.7236534 3.75v15c0 2.0703125 1.66788642 3.75 3.7236534 3.75h27.3067916c2.0557669 0 3.7236534-1.6796875 3.7236534-3.75v-15c0-2.0703125-1.6678865-3.75-3.7236534-3.75zm-10.0468384 13.3196721c0 1.8114754-1.4672132 3.2786886-3.2786886 3.2786886s-3.2786885-1.4672132-3.2786885-3.2786886v-3.9344262c0-1.8114754 1.4672131-3.2786885 3.2786885-3.2786885s3.2786886 1.4672131 3.2786886 3.2786885zm1.9449847-13.1147541h-11.147541v-5.5737705c0-3.0733151 2.5004554-5.5737705 5.5737705-5.5737705s5.5737705 2.5004554 5.5737705 5.5737705z" fill="url(#g)"/></g></g></svg>

<svg xmlns="http://www.w3.org/2000/svg" xmlns:xlink="http://www.w3.org/1999/xlink" width="77" height="72" viewBox="0 0 77 72">
  <defs>
    <path id="ssl-encryption-a" d="M0.5,13.84 C0.5,6.473 6.473,0.5 13.84,0.5 L62.16,0.5 C69.527,0.5 75.5,6.473 75.5,13.84 L75.5,62.16 C75.5,69.527 69.527,75.5 62.16,75.5 L13.84,75.5 C6.473,75.5 0.5,69.527 0.5,62.16 L0.5,13.84 Z"/>
    <linearGradient id="ssl-encryption-c" x1="0%" x2="0%" y1="0%" y2="105.733%">
      <stop offset="0%" stop-color="#3C3F4A"/>
      <stop offset="100%" stop-color="#2A2F45"/>
    </linearGradient>
    <filter id="ssl-encryption-d" width="108%" height="108%" x="-4%" y="-4%" filterUnits="objectBoundingBox">
      <feGaussianBlur in="SourceGraphic" stdDeviation=".65"/>
    </filter>
    <linearGradient id="ssl-encryption-e" x1="0%" x2="0%" y1="0%" y2="104.976%">
      <stop offset="0%" stop-color="#2A2F45"/>
      <stop offset="100%" stop-color="#1A1F36"/>
    </linearGradient>
    <radialGradient id="ssl-encryption-f" cx="57.589%" cy="6.679%" r="115.094%" fx="57.589%" fy="6.679%" gradientTransform="matrix(0 .86885 -1 0 .643 -.434)">
      <stop offset="0%" stop-color="#FFF"/>
      <stop offset="100%" stop-color="#AEC3EB"/>
    </radialGradient>
    <filter id="ssl-encryption-g" width="111.2%" height="109.8%" x="-5.6%" y="-4.9%" filterUnits="objectBoundingBox">
      <feGaussianBlur in="SourceGraphic" stdDeviation=".65"/>
    </filter>
    <radialGradient id="ssl-encryption-h" cx="57.589%" cy="6.679%" r="195.416%" fx="57.589%" fy="6.679%" gradientTransform="matrix(0 .86885 -1 0 .643 -.434)">
      <stop offset="0%" stop-color="#FFF"/>
      <stop offset="100%" stop-color="#AEC3EB"/>
    </radialGradient>
  </defs>
  <g fill="none" fill-rule="evenodd" transform="translate(1 -1)">
    <mask id="ssl-encryption-b" fill="#fff">
      <use xlink:href="#ssl-encryption-a"/>
    </mask>
    <path d="M0.5,13.84 C0.5,6.473 6.473,0.5 13.84,0.5 L62.16,0.5 C69.527,0.5 75.5,6.473 75.5,13.84 L75.5,62.16 C75.5,69.527 69.527,75.5 62.16,75.5 L13.84,75.5 C6.473,75.5 0.5,69.527 0.5,62.16 L0.5,13.84 Z" mask="url(#ssl-encryption-b)"/>
    <path d="M0.5,13.84 C0.5,6.473 6.473,0.5 13.84,0.5 L62.16,0.5 C69.527,0.5 75.5,6.473 75.5,13.84 L75.5,62.16 C75.5,69.527 69.527,75.5 62.16,75.5 L13.84,75.5 C6.473,75.5 0.5,69.527 0.5,62.16 L0.5,13.84 Z"/>
    <path d="M0.5,13.84 C0.5,6.473 6.473,0.5 13.84,0.5 L62.16,0.5 C69.527,0.5 75.5,6.473 75.5,13.84 L75.5,62.16 C75.5,69.527 69.527,75.5 62.16,75.5 L13.84,75.5 C6.473,75.5 0.5,69.527 0.5,62.16 L0.5,13.84 Z"/>
    <g fill-rule="nonzero" transform="translate(0 2)">
      <g stroke="#FFF" stroke-opacity=".01" stroke-width="1.68" transform="translate(5)">
        <path fill="url(#ssl-encryption-c)" d="M47.4994959,21.4516129 C45.4527122,8.84879032 40.625126,0 35.0070579,0 C29.3889897,0 24.5614035,8.84879032 22.5146199,21.4516129 L47.4994959,21.4516129 Z M21.4559387,35 C21.4559387,38.1330645 21.6253277,41.1391129 21.9217584,44.0322581 L48.0782416,44.0322581 C48.3746723,41.1391129 48.5440613,38.1330645 48.5440613,35 C48.5440613,31.8669355 48.3746723,28.8608871 48.0782416,25.9677419 L21.9217584,25.9677419 C21.6253277,28.8608871 21.4559387,31.8669355 21.4559387,35 Z M67.2897762,21.4516129 C63.2526719,11.8689516 55.0796532,4.45967742 44.9868925,1.46774194 C48.4311353,6.23790323 50.8025812,13.421371 52.0447671,21.4516129 L67.2897762,21.4516129 Z M25.0131075,1.46774194 C14.9344626,4.45967742 6.74732809,11.8689516 2.72433958,21.4516129 L17.9693487,21.4516129 C19.1974188,13.421371 21.5688647,6.23790323 25.0131075,1.46774194 Z M68.8001613,25.9677419 L52.6093971,25.9677419 C52.9058278,28.9314516 53.0752168,31.9657258 53.0752168,35 C53.0752168,38.0342742 52.9058278,41.0685484 52.6093971,44.0322581 L68.7860456,44.0322581 C69.5624118,41.1391129 70,38.1330645 70,35 C70,31.8669355 69.5624118,28.8608871 68.8001613,25.9677419 Z M16.938899,35 C16.938899,31.9657258 17.108288,28.9314516 17.4047187,25.9677419 L1.21395443,25.9677419 C0.451703973,28.8608871 0,31.8669355 0,35 C0,38.1330645 0.451703973,41.1391129 1.21395443,44.0322581 L17.3906029,44.0322581 C17.108288,41.0685484 16.938899,38.0342742 16.938899,35 Z M22.5146199,48.5483871 C24.5614035,61.1512097 29.3889897,70 35.0070579,70 C40.625126,70 45.4527122,61.1512097 47.4994959,48.5483871 L22.5146199,48.5483871 Z M45.0010083,68.5322581 C55.0796532,65.5403226 63.2667877,58.1310484 67.3038919,48.5483871 L52.0588828,48.5483871 C50.8166969,56.578629 48.4452511,63.7620968 45.0010083,68.5322581 Z M2.72433958,48.5483871 C6.76144384,58.1310484 14.9344626,65.5403226 25.0272232,68.5322581 C21.5829804,63.7620968 19.2115346,56.578629 17.9693487,48.5483871 L2.72433958,48.5483871 Z" filter="url(#ssl-encryption-d)"/>
        <path fill="url(#ssl-encryption-e)" d="M47.4994959,21.4516129 C45.4527122,8.84879032 40.625126,0 35.0070579,0 C29.3889897,0 24.5614035,8.84879032 22.5146199,21.4516129 L47.4994959,21.4516129 Z M21.4559387,35 C21.4559387,38.1330645 21.6253277,41.1391129 21.9217584,44.0322581 L48.0782416,44.0322581 C48.3746723,41.1391129 48.5440613,38.1330645 48.5440613,35 C48.5440613,31.8669355 48.3746723,28.8608871 48.0782416,25.9677419 L21.9217584,25.9677419 C21.6253277,28.8608871 21.4559387,31.8669355 21.4559387,35 Z M67.2897762,21.4516129 C63.2526719,11.8689516 55.0796532,4.45967742 44.9868925,1.46774194 C48.4311353,6.23790323 50.8025812,13.421371 52.0447671,21.4516129 L67.2897762,21.4516129 Z M25.0131075,1.46774194 C14.9344626,4.45967742 6.74732809,11.8689516 2.72433958,21.4516129 L17.9693487,21.4516129 C19.1974188,13.421371 21.5688647,6.23790323 25.0131075,1.46774194 Z M68.8001613,25.9677419 L52.6093971,25.9677419 C52.9058278,28.9314516 53.0752168,31.9657258 53.0752168,35 C53.0752168,38.0342742 52.9058278,41.0685484 52.6093971,44.0322581 L68.7860456,44.0322581 C69.5624118,41.1391129 70,38.1330645 70,35 C70,31.8669355 69.5624118,28.8608871 68.8001613,25.9677419 Z M16.938899,35 C16.938899,31.9657258 17.108288,28.9314516 17.4047187,25.9677419 L1.21395443,25.9677419 C0.451703973,28.8608871 0,31.8669355 0,35 C0,38.1330645 0.451703973,41.1391129 1.21395443,44.0322581 L17.3906029,44.0322581 C17.108288,41.0685484 16.938899,38.0342742 16.938899,35 Z M22.5146199,48.5483871 C24.5614035,61.1512097 29.3889897,70 35.0070579,70 C40.625126,70 45.4527122,61.1512097 47.4994959,48.5483871 L22.5146199,48.5483871 Z M45.0010083,68.5322581 C55.0796532,65.5403226 63.2667877,58.1310484 67.3038919,48.5483871 L52.0588828,48.5483871 C50.8166969,56.578629 48.4452511,63.7620968 45.0010083,68.5322581 Z M2.72433958,48.5483871 C6.76144384,58.1310484 14.9344626,65.5403226 25.0272232,68.5322581 C21.5829804,63.7620968 19.2115346,56.578629 17.9693487,48.5483871 L2.72433958,48.5483871 Z"/>
      </g>
      <path fill="url(#ssl-encryption-f)" d="M31.030445,22.5 L29.1686183,22.5 L29.1686183,16.875 C29.1686183,10.328125 23.8779274,5 17.3770492,5 C10.876171,5 5.58548009,10.328125 5.58548009,16.875 L5.58548009,22.5 L3.7236534,22.5 C1.66788642,22.5 9.23705556e-14,24.1796875 9.23705556e-14,26.25 L9.23705556e-14,41.25 C9.23705556e-14,43.3203125 1.66788642,45 3.7236534,45 L31.030445,45 C33.0862119,45 34.7540984,43.3203125 34.7540984,41.25 L34.7540984,26.25 C34.7540984,24.1796875 33.0862119,22.5 31.030445,22.5 Z M20.9836066,35.8196721 C20.9836066,37.6311475 19.5163934,39.0983607 17.704918,39.0983607 C15.8934426,39.0983607 14.4262295,37.6311475 14.4262295,35.8196721 L14.4262295,31.8852459 C14.4262295,30.0737705 15.8934426,28.6065574 17.704918,28.6065574 C19.5163934,28.6065574 20.9836066,30.0737705 20.9836066,31.8852459 L20.9836066,35.8196721 Z M22.9285913,22.704918 L11.7810503,22.704918 L11.7810503,17.1311475 C11.7810503,14.0578324 14.2815057,11.557377 17.3548208,11.557377 C20.4281359,11.557377 22.9285913,14.0578324 22.9285913,17.1311475 L22.9285913,22.704918 Z" filter="url(#ssl-encryption-g)"/>
      <path fill="url(#ssl-encryption-h)" d="M31.030445,22.5 L29.1686183,22.5 L29.1686183,16.875 C29.1686183,10.328125 23.8779274,5 17.3770492,5 C10.876171,5 5.58548009,10.328125 5.58548009,16.875 L5.58548009,22.5 L3.7236534,22.5 C1.66788642,22.5 0,24.1796875 0,26.25 L0,41.25 C0,43.3203125 1.66788642,45 3.7236534,45 L31.030445,45 C33.0862119,45 34.7540984,43.3203125 34.7540984,41.25 L34.7540984,26.25 C34.7540984,24.1796875 33.0862119,22.5 31.030445,22.5 Z M20.9836066,35.8196721 C20.9836066,37.6311475 19.5163934,39.0983607 17.704918,39.0983607 C15.8934426,39.0983607 14.4262295,37.6311475 14.4262295,35.8196721 L14.4262295,31.8852459 C14.4262295,30.0737705 15.8934426,28.6065574 17.704918,28.6065574 C19.5163934,28.6065574 20.9836066,30.0737705 20.9836066,31.8852459 L20.9836066,35.8196721 Z M22.9285913,22.704918 L11.7810503,22.704918 L11.7810503,17.1311475 C11.7810503,14.0578324 14.2815057,11.557377 17.3548208,11.557377 C20.4281359,11.557377 22.9285913,14.0578324 22.9285913,17.1311475 L22.9285913,22.704918 Z"/>
    </g>
  </g>
</svg>
